X: 529
T: Zagorski Drmes
O: Croatia
F: http://www.youtube.com/watch?v=nmgYBqruMFM
M: 2/4
L: 1/8
Q: 1/4=300
P:ABCBCDAA
K: Edor
P:A
%%MIDI program 21
  [F2D2] [A2D2]|[F2D2] [A2D2]|[G2E2] [G2E2]        |[GE][FE] [E2A,2]|\
  [F2D2] [F2D2]|[E2A,2] D2   |[E4A,4]              |[E4A,4]         |
P:B
%%MIDI program 21
|:[A4D4]       | [A4D4]      |[^G4E4]              | [^G4E4]        |\
  [A2D2][A2D2] | [F2D2][A2D2]|[^G4E4]              | [^G4E4]        |
  [A2D2][A2D2] | [F2D2][A2D2]|[^G4E4]              | [^G4E4]        |\
  [A2D2][A2D2] | [F2D2]D2    |[E4C4A,4]            | [E4^C4A,4]    :|
P:C
%%MIDI program 25
|:F2 F2        |E2 F2        |G2 G2                |GF E2           |\
  F2 F2        |E2 F2        |G2 F2                |E4              |
  F2 F2        |E2 F2        |G2 G2                |GF E2           |\
  F2 F2        |E2 D2        |E4                   |E4              :|
P:D
%%MIDI program 110
|:G4           |A4           |B4                   |B4              |\
  B2B2         |B2^A2        |B4                   |B4              |
  d4-          |d4           |d4                   | =c2B2          |\
  B2B2         |B2^A2        |B4                   |B4              :|



